X: 11741
T: The KNIGHT OF SNOWDOWN
%R: jig
B: W. Hamilton "Universal Tune-Book" Vol. 1 Glasgow 1844 p.174 #1
S: http://imslp.org/wiki/Hamilton's_Universal_Tune-Book_(Various)
Z: 2016 John Chambers <jc:trillian.mit.edu>
M: 6/8
L: 1/8
K: D
%%slurgraces yes
%%graceslurs yes
% - - - - - - - - - - - - - - - - - - - - - - - - -
A/d/ |\
f2f (fe)d | c2A ABc | d2d def | (g2e) ede |\
f2f fed | {d}c2A ABc | d2d efg | (f2d) d2 :|
A/c/ |\
e2e e2e | efg gab | (ba)a (ag)f | (fe)e e2A |\
e2e e2e | efg gab | .b.a.g .f.e.d | .c.B.A .G.F.E |
(DE)F F2F | (FG)A A2A | (Ad).B (Ad).B | AFF (F2E) |\
(DE).F F2F | (FG).A A2A | (Ad).B (AB).G | (FD)D D2 |]
% - - - - - - - - - - - - - - - - - - - - - - - - -

%%sep 1 1 500
%%sep 1 1 500

